lib/brands/icons/foursquare.svg

<svg xmlns="http://www.w3.org/2000/svg" fill="none" aria-hidden="true" viewBox="0 0 48 48"><g id="foursquare-Icon"><path id="Vector" fill="#FA4778" d="M32.6512 8H15.5721C13.2255 8 12.5322 9.77324 12.5322 10.8799V37.9985C12.5322 39.2518 13.1989 39.7317 13.5855 39.8784C13.9588 40.0384 15.0121 40.1584 15.6387 39.4384C15.6387 39.4384 23.6917 30.0922 23.8383 29.9456C24.0517 29.7456 24.0517 29.7456 24.2516 29.7456H29.4647C31.6646 29.7456 32.0113 28.1857 32.2512 27.2657C32.4512 26.5057 34.5845 15.5596 35.2911 12.0798C35.8377 9.43993 35.1578 8 32.6512 8V8ZM17.0973 11.5198H30.79C31.2966 11.5198 31.7633 11.9998 31.6299 12.6131V12.6264L30.9233 16.3463C30.83 16.7596 30.3233 17.1862 29.8567 17.1862H23.217C22.4571 17.1862 21.9238 17.7062 21.9238 18.4395V19.2661C21.9238 20.0261 22.4704 20.546 23.217 20.546H28.8567C29.3767 20.546 29.8967 21.1193 29.79 21.6793L29.0701 25.3591C29.0034 25.6791 28.6568 26.1991 28.0301 26.1991H23.417C22.5771 26.1991 22.3237 26.3191 21.7638 26.9991C21.2038 27.7057 16.1507 33.7587 16.1507 33.7587C16.1107 33.8254 16.0574 33.7987 16.0574 33.7454V12.5598C16.0574 12.0798 16.4707 11.5198 17.0973 11.5198V11.5198Z"/></g></svg>

<svg xmlns="http://www.w3.org/2000/svg" fill="none" aria-hidden="true" viewBox="0 0 48 48"><path fill="#FA4778" d="M32.651 8H15.572c-2.346 0-3.04 1.773-3.04 2.88v27.118c0 1.254.667 1.734 1.053 1.88.374.16 1.427.28 2.054-.44 0 0 8.053-9.346 8.2-9.492.213-.2.213-.2.413-.2h5.213c2.2 0 2.546-1.56 2.786-2.48.2-.76 2.334-11.706 3.04-15.186.547-2.64-.133-4.08-2.64-4.08Zm-15.554 3.52H30.79c.507 0 .973.48.84 1.093v.013l-.707 3.72c-.093.414-.6.84-1.066.84h-6.64c-.76 0-1.293.52-1.293 1.253v.827c0 .76.546 1.28 1.293 1.28h5.64c.52 0 1.04.573.933 1.133l-.72 3.68c-.067.32-.413.84-1.04.84h-4.613c-.84 0-1.093.12-1.653.8-.56.707-5.613 6.76-5.613 6.76-.04.066-.094.04-.094-.014V12.56c0-.48.414-1.04 1.04-1.04Z"/></svg>
